X:8389
T:Kas a barh
C:Perroches
M:4/4
L:1/8
K:C
A2Bd d3c|A2c2 B2BB|A2Bd d3c|A2c2 B4:|A2Bd d3c|\
B2c2 A2G2|:A2A2 B2dc|B2c2  A2G2|A2A2 B2dc|B2c2  A4:|
